icons/photos-add-to-gallery.svg

<svg
  xmlns="http://www.w3.org/2000/svg"
  viewBox="0 0 500 500"
  width="500"
  height="500"
  fill="#ffffff"
>
  <path d="M391.74 263.32V68.18A63.25 63.25 0 0 0 328.57 5H75.38a63.25 63.25 0 0 0-63.17 63.18v253.19a63.24 63.24 0 0 0 63.17 63.17h179a116.78 116.78 0 1 0 137.36-121.22zm-109.19 38.79l-39.39-39.39 48.38-48.38L342.23 265a117 117 0 0 0-59.68 37.11zM75.38 43.93h253.19a24.27 24.27 0 0 1 24.25 24.25v152.39l-61.28-61.28-75.91 75.9-104.31-104.31-60.19 60.19V68.18a24.27 24.27 0 0 1 24.25-24.25zM51.13 321.37v-75.25l60.19-60.18 150.62 150.61q-1.69 4.45-3 9.06H75.38a24.28 24.28 0 0 1-24.25-24.24zM371 456.07a77.86 77.86 0 1 1 77.86-77.85A77.93 77.93 0 0 1 371 456.07z" />
  <path d="M404.66 358H390.5v-14.2a19.46 19.46 0 1 0-38.92 0V358h-14.16a19.46 19.46 0 1 0 0 38.92h14.16V411a19.46 19.46 0 1 0 38.92 0v-14.12h14.16a19.46 19.46 0 1 0 0-38.92z" />
  <circle cx="232.78" cy="90.95" r="20.18" />
</svg>

<svg xmlns="http://www.w3.org/2000/svg" viewBox="0 0 500 500">
  <g id="photos-add-to-gallery">
    <path id="outline" d="M391.74,263.32V68.18A63.25,63.25,0,0,0,328.57,5H75.38A63.25,63.25,0,0,0,12.21,68.18V321.37a63.24,63.24,0,0,0,63.17,63.17h179A116.78,116.78,0,1,0,391.74,263.32ZM282.55,302.11l-39.39-39.39,48.38-48.38L342.23,265A117,117,0,0,0,282.55,302.11ZM75.38,43.93H328.57a24.27,24.27,0,0,1,24.25,24.25V220.57l-61.28-61.28-75.91,75.9L111.32,130.88,51.13,191.07V68.18A24.27,24.27,0,0,1,75.38,43.93ZM51.13,321.37V246.12l60.19-60.18L261.94,336.55q-1.69,4.45-3,9.06H75.38A24.28,24.28,0,0,1,51.13,321.37ZM371,456.07a77.86,77.86,0,1,1,77.86-77.85A77.93,77.93,0,0,1,371,456.07Z"/>
    <path id="plus" d="M404.66,358H390.5V343.8a19.46,19.46,0,1,0-38.92,0V358H337.42a19.46,19.46,0,1,0,0,38.92h14.16V411a19.46,19.46,0,1,0,38.92,0V396.88h14.16a19.46,19.46,0,1,0,0-38.92Z"/>
    <circle id="moon" cx="232.78" cy="90.95" r="20.18"/>
  </g>
</svg>
